icons/fill-new-other-guide.svg

<svg xmlns="http://www.w3.org/2000/svg" width="32px" height="32px" viewBox="0 0 32 32" version="1.1">
    <title>fill-new-other-guide</title>
    <g id="fill-new-other-guide" stroke-width="1" fill-rule="evenodd">
        <path d="M13,2 L19,2 C19.5522847,2 20,2.44771525 20,3 L20,6 L12,6 L12,3 C12,2.44771525 12.4477153,2 13,2 Z M12,26 L20,26 L20,29 C20,29.5522847 19.5522847,30 19,30 L13,30 C12.4477153,30 12,29.5522847 12,29 L12,26 Z M4.55782118,10.8492086 L6.70067832,8.34920863 C6.89066052,8.12756273 7.16801004,8 7.45993492,8 L26,8 C26.5522847,8 27,8.44771525 27,9 L27,14 C27,14.5522847 26.5522847,15 26,15 L7.45993492,15 C7.16801004,15 6.89066052,14.8724373 6.70067832,14.6507914 L4.55782118,12.1507914 C4.23682998,11.7763016 4.23682998,11.2236984 4.55782118,10.8492086 Z M27.4421788,19.8492086 L25.2993217,17.3492086 C25.1093395,17.1275627 24.83199,17 24.5400651,17 L6,17 C5.44771525,17 5,17.4477153 5,18 L5,23 C5,23.5522847 5.44771525,24 6,24 L24.5400651,24 C24.83199,24 25.1093395,23.8724373 25.2993217,23.6507914 L27.4421788,21.1507914 C27.76317,20.7763016 27.76317,20.2236984 27.4421788,19.8492086 Z" id="&#24418;&#29366;" />
    </g>
</svg>

<svg xmlns="http://www.w3.org/2000/svg" viewBox="0 0 32 32"><path fill="currentColor" d="M13 2h6a1 1 0 0 1 1 1v3h-8V3a1 1 0 0 1 1-1m-1 24h8v3a1 1 0 0 1-1 1h-6a1 1 0 0 1-1-1zM4.558 10.85 6.7 8.35A1 1 0 0 1 7.46 8H26a1 1 0 0 1 1 1v5a1 1 0 0 1-1 1H7.46a1 1 0 0 1-.76-.35l-2.142-2.5a1 1 0 0 1 0-1.3m22.884 9-2.143-2.5a1 1 0 0 0-.759-.35H6a1 1 0 0 0-1 1v5a1 1 0 0 0 1 1h18.54a1 1 0 0 0 .76-.35l2.142-2.5a1 1 0 0 0 0-1.3"/></svg>
